X:1
T:Shall We Meet?
T:Shall We Meet?
T:Elihu S. Rice, 1866
T:Horace Lorenzo Hastings, 1858
T:Public Domain Courtesy of the Cyber Hymnal™
C:Elihu S. Rice, 1866
Z:Public Domain
Z:Courtesy of the Cyber Hymnal™
%%score ( 1 2 ) ( 3 4 )
L:1/8
Q:1/4=102
M:3/4
K:Ab
V:1 treble 
V:2 treble 
V:3 bass 
V:4 bass 
V:1
 [CA]>[DB] | [Ec]3 [CE] [DF]>[CE] | [CE] [CA]3 [B,G]>[CA] | [DB]3 [DB] [Ec]>[DB] | %4
w: 1.~Shall we|meet be- yond the|riv- er, Where the|surg- es cease to|
w: 2.~Shall we|meet in that blest|har- bor, When our|storm- y voyage is|
w: 3.~Shall we|meet in yon- der|ci- ty, Where the|towers or crys- tal|
w: 4.~Shall we|meet with Christ our|Sav- ior, When He|comes to claim His|
 (A2 E2) [CA]>[DB] | [Ec]3 [CE] [DF]>[CE] | [CE] [CA]3 [Ec]>[EA] | [DF]3 [DA] [DG]>[DB] | [CA]4 || %9
w: roll? * Where in|all the bright for-|ev- er, Sor- row|ne’er shall press the|soul?|
w: o’er? * Shall we|meet and cast the|an- chor By the|fair, ce- lest- ial|shore?|
w: shine? * Where the|walls are all of|jas- per, Built by|work- man- ship di-|vine?|
w: own? * Shall we|know His bless- èd|fa- vor, And sit|down up- on His|throne?|
"^Refrain" [CA]>[Ec] | [EB]4 [EB]>[Ed] | [Ec]4 [Ec]>[Ec] | [EB]>[Ec] [Ed]2 [Ec]2 | %13
w: ||||
w: ||||
w: ||||
w: ||||
 [Ec] [EB]2 z [CA]>[DB] | [Ec]3 [CE] [DF]>[CE] | [CE] [CA]3 [Ec]>[EA] | [DF]3 [DA] [DG]>[DB] | %17
w: ||||
w: ||||
w: ||||
w: ||||
 !fermata![CA]4 |] %18
w: |
w: |
w: |
w: |
V:2
 x2 | x6 | x6 | x6 | C4 x2 | x6 | x6 | x6 | x4 || x2 | x6 | x6 | x6 | x6 | x6 | x6 | x6 | x4 |] %18
V:3
 [A,,A,]>[A,,A,] | [A,,A,]3 [A,,A,] [A,,A,]>[A,,A,] | [A,,A,] [A,,E,]3 E,>E, | %3
w: ~ ~|~ ~ ~ ~|~ ~ ~ ~|
 [E,G,]3 [E,G,] [E,G,]>[E,G,] | [A,,A,]4 [A,,A,]>[A,,A,] | [A,,A,]3 [A,,A,] [A,,A,]>[A,,A,] | %6
w: ~ ~ ~ ~|~ ~ ~|~ ~ ~ ~|
 [A,,A,] [A,,E,]3 [A,,A,]>[C,A,] | [D,A,]3 [D,F,] E,>E, | [A,,E,]4 || [A,,E,]>[A,,A,] | %10
w: ~ ~ ~ ~|~ ~ ~ ~|~|Shall we|
 [E,G,]4 [E,G,]>[E,B,] | A,4 A,>A, | [E,G,]>[E,A,] [E,B,]2 [E,A,]2 | %13
w: meet, shall we|meet, Shall we|meet be- yond the|
 [E,A,] [E,G,]2 z [A,,A,]>[A,,A,] | [A,,A,]3 [A,,A,] [A,,A,]>[A,,A,] | %15
w: riv- er? Shall we|meet be- yond the|
 [A,,A,] [A,,E,]3 [A,,A,]>[C,A,] | [D,A,]3 [D,F,] E,>E, | [A,,E,]4 |] %18
w: riv- er, Where the|surg- es cease to|roll?|
V:4
 x2 | x6 | x4 E,>E, | x6 | x6 | x6 | x6 | x4 E,>E, | x4 || x2 | x6 | A,4 A,>A, | x6 | x6 | x6 | %15
 x6 | x4 E,>E, | x4 |] %18

